packages/icons/src/solid-error.svg

<svg fill="none" viewBox="0 0 20 20" xmlns="http://www.w3.org/2000/svg"><path d="m10 18.3337c-4.60238 0-8.33334-3.731-8.33334-8.3334 0-4.60235 3.73096-8.33331 8.33334-8.33331 4.6024 0 8.3333 3.73096 8.3333 8.33331 0 4.6024-3.7309 8.3334-8.3333 8.3334z" fill="#cf2318"/><path d="m9.99733 9.02555 2.97897-2.97803c.6514-.6512 1.6267.32736.9753.97856l-2.978 2.97712 2.966 2.9705c.6508.6518-.3254 1.6295-.9762.9777l-2.96695-2.9714-2.9727 2.9718c-.6514.6512-1.62675-.3273-.97535-.9785l2.97182-2.9709-2.97226-2.97676c-.65081-.65179.32541-1.62947.97623-.97768z" fill="#fff"/></svg>

<svg  viewBox="0 0 20 20" fill="none" xmlns="http://www.w3.org/2000/svg">
<path d="M10 18.3337C5.39762 18.3337 1.66666 14.6027 1.66666 10.0003C1.66666 5.39795 5.39762 1.66699 10 1.66699C14.6024 1.66699 18.3333 5.39795 18.3333 10.0003C18.3333 14.6027 14.6024 18.3337 10 18.3337Z" fill="#CF2318"/>
<path d="M9.99733 9.02555L12.9763 6.04752C13.6277 5.39632 14.603 6.37488 13.9516 7.02608L10.9736 10.0032L13.9396 12.9737C14.5904 13.6255 13.6142 14.6032 12.9634 13.9514L9.99645 10.98L7.02375 13.9518C6.37235 14.603 5.397 13.6245 6.0484 12.9733L9.02022 10.0024L6.04796 7.02564C5.39715 6.37385 6.37337 5.39617 7.02419 6.04796L9.99733 9.02555Z" fill="white"/>
</svg>
